X:115
T:Bourr\'ee de Chabot
R:Bourr\'ee d'Auvergne
N:original url: www.wolfram.claranet.de
M:6/8
L:1/8
K:Ador
|:a3ga2| gfefg2| a3ga2| gfe4| a3ga2| gfefg2| a3ga2| gfece2|1 d6:|2 d4A2|
|:d2efec| efg2f2| d2efed| cBA4| d2efec| efg2f2| d2efec|1 d4A2:|2 d6||
